X:1
T:Au de lota
T:Au de lota
T:Nicolas Martin (1500?-1571)
C:Nicolas Martin (1500?-1571)
L:1/8
Q:1/4=120
M:9/4
K:G
V:1 treble 
V:1
 dd/d/ B2 d/^c/d G2 cA/c<BG/AA G4 |[M:3/8] d2 d | g2 f | e2 d | B2 G | ^c2 c | ^c2 A | B2 ^c | d3 | %9
w: Av de lo ta dieu voz ay dey, cha tin no e due ou trey vey|Quie toz|lez dit|la ser|uen taz|Du tout|puis sant|rey de|reyz?|
 d2 d | ^c2 B | d2 d | ^c2 B | d2 d | ^c2 B | d2 d | ^c2 B | d2 ^c | B2 G | A2 A | G3 |] %21
w: Est Ga|briel ma|riaz tant|gen taz|Que voz|fa luet|des tr'en|cen taz|Et pu|cellaz en|fan te|rey.|

